X: 1
T: Harvest Home
C: Trad
R: Hornpipe (Swung)
M: 4/4
L: 1/8
K: D
Z: ABC transcription by Verge Roller
r: 32
|: A>G | "D" D>AF>A D>AF>A | "D" d>ef>e d>cB>A | "A" e>Af>A g>Af>A | "A" e>dc>B (3ABA (3GFE |
"D" D>AF>A D>AF>A | "D" d>ef>e d>cB>A | "A" e>Af>A g>ec>e | "D" d2 f2 d2 :|
|: c>d | "A" e>AA>A f>AA>A | "A" g>Af>A e>AA>A | "A" e>Af>A g>Af>A | "A" e>dc>B (3ABA (3GFE |
"D" D>AF>A D>AF>A | "D" d>ef>e d>cB>A | "A" e>Af>A g>ec>e | "D" d2 f2 d2 :|
